packages/icons/src/emoji/svg/airplane.svg

<svg width="120" height="120" viewBox="0 0 120 120" fill="none" xmlns="http://www.w3.org/2000/svg">
<path d="M31.3215 32.8968C31.0162 32.5924 30.774 32.2308 30.6087 31.8326C30.4435 31.4345 30.3584 31.0076 30.3584 30.5765C30.3584 30.1454 30.4435 29.7185 30.6087 29.3204C30.774 28.9222 31.0162 28.5606 31.3215 28.2562L37.284 22.2937C37.5884 21.9884 37.95 21.7462 38.3482 21.5809C38.7464 21.4156 39.1732 21.3306 39.6043 21.3306C40.0354 21.3306 40.4623 21.4156 40.8605 21.5809C41.2586 21.7462 41.6203 21.9884 41.9246 22.2937C42.2299 22.5981 42.4722 22.9597 42.6374 23.3579C42.8027 23.756 42.8878 24.1829 42.8878 24.614C42.8878 25.0451 42.8027 25.472 42.6374 25.8701C42.4722 26.2683 42.2299 26.6299 41.9246 26.9343L35.9621 32.8968C35.6578 33.2021 35.2961 33.4443 34.898 33.6096C34.4998 33.7749 34.0729 33.8599 33.6418 33.8599C33.2107 33.8599 32.7839 33.7749 32.3857 33.6096C31.9875 33.4443 31.6259 33.2021 31.3215 32.8968ZM49.3684 32.8968C49.0631 32.5924 48.8209 32.2308 48.6556 31.8326C48.4903 31.4345 48.4053 31.0076 48.4053 30.5765C48.4053 30.1454 48.4903 29.7185 48.6556 29.3204C48.8209 28.9222 49.0631 28.5606 49.3684 28.2562L55.3309 22.2937C55.6353 21.9884 55.9969 21.7462 56.3951 21.5809C56.7932 21.4156 57.2201 21.3306 57.6512 21.3306C58.0823 21.3306 58.5092 21.4156 58.9073 21.5809C59.3055 21.7462 59.6671 21.9884 59.9715 22.2937C60.2768 22.5981 60.519 22.9597 60.6843 23.3579C60.8496 23.756 60.9346 24.1829 60.9346 24.614C60.9346 25.0451 60.8496 25.472 60.6843 25.8701C60.519 26.2683 60.2768 26.6299 59.9715 26.9343L54.009 32.8968C53.7046 33.2021 53.343 33.4443 52.9448 33.6096C52.5467 33.7749 52.1198 33.8599 51.6887 33.8599C51.2576 33.8599 50.8307 33.7749 50.4326 33.6096C50.0344 33.4443 49.6728 33.2021 49.3684 32.8968ZM87.684 69.2249C87.3787 68.9206 87.1365 68.5589 86.9712 68.1608C86.806 67.7626 86.7209 67.3357 86.7209 66.9046C86.7209 66.4735 86.806 66.0467 86.9712 65.6485C87.1365 65.2503 87.3787 64.8887 87.684 64.5843L93.6465 58.6218C93.9509 58.3165 94.3125 58.0743 94.7107 57.909C95.1089 57.7438 95.5357 57.6587 95.9668 57.6587C96.3979 57.6587 96.8248 57.7438 97.223 57.909C97.6211 58.0743 97.9828 58.3165 98.2871 58.6218C98.5924 58.9262 98.8346 59.2878 98.9999 59.686C99.1652 60.0842 99.2503 60.511 99.2503 60.9421C99.2503 61.3732 99.1652 61.8001 98.9999 62.1983C98.8346 62.5964 98.5924 62.9581 98.2871 63.2624L92.3247 69.2249C92.0203 69.5302 91.6586 69.7724 91.2605 69.9377C90.8623 70.103 90.4354 70.1881 90.0043 70.1881C89.5732 70.1881 89.1464 70.103 88.7482 69.9377C88.35 69.7724 87.9884 69.5302 87.684 69.2249ZM87.2059 87.5062C86.9006 87.2018 86.6584 86.8402 86.4931 86.442C86.3279 86.0438 86.2428 85.617 86.2428 85.1859C86.2428 84.7548 86.3279 84.3279 86.4931 83.9298C86.6584 83.5316 86.9006 83.1699 87.2059 82.8656L93.1684 76.9031C93.4728 76.5978 93.8344 76.3556 94.2326 76.1903C94.6308 76.025 95.0576 75.9399 95.4887 75.9399C95.9198 75.9399 96.3467 76.025 96.7448 76.1903C97.143 76.3556 97.5046 76.5978 97.809 76.9031C98.1143 77.2074 98.3565 77.5691 98.5218 77.9673C98.6871 78.3654 98.7721 78.7923 98.7721 79.2234C98.7721 79.6545 98.6871 80.0813 98.5218 80.4795C98.3565 80.8777 98.1143 81.2393 97.809 81.5437L91.8465 87.5062C91.5421 87.8115 91.1805 88.0537 90.7823 88.219C90.3842 88.3842 89.9573 88.4693 89.5262 88.4693C89.0951 88.4693 88.6682 88.3842 88.2701 88.219C87.8719 88.0537 87.5103 87.8115 87.2059 87.5062Z" fill="#78A3AD"/>
<path d="M90.6469 33.1031C90.6469 33.1031 94.0875 75.2906 90.6469 108.084C90.0844 113.428 82.5657 114.741 81.4782 109.472C75.3282 79.6687 62.0532 62.6343 62.0532 62.6343L90.6469 33.1031ZM86.925 29.9437C86.925 29.9437 44.7375 26.5031 11.9438 29.9437C6.60004 30.5062 5.28754 38.025 10.5563 39.1125C40.3594 45.2625 57.3938 58.5375 57.3938 58.5375L86.925 29.9437ZM40.3125 79.6875H7.51879C3.82504 79.6875 2.35316 84.4687 5.40941 86.5406L21.5625 97.5L40.3125 79.6875ZM40.3125 79.6875V112.481C40.3125 116.175 35.5313 117.647 33.4594 114.591L22.5 98.4375L40.3125 79.6875Z" fill="#016CA2"/>
<path d="M84.6469 17.2405L25.0781 79.9124C23.4219 81.6551 22.4989 83.9676 22.5 86.3718V91.8749C22.5 94.978 25.0219 97.4999 28.125 97.4999H33.6281C36.0281 97.4999 38.3438 96.5811 40.0875 94.9218L102.759 35.353C105.684 32.578 107.634 28.9311 108.319 24.9561L109.734 16.7624C110.4 12.928 107.062 9.59989 103.238 10.2655L95.0437 11.6811C91.0687 12.3655 87.4219 14.3155 84.6469 17.2405Z" fill="#40C0E7"/>
<path d="M44.0811 76.7532L19.8467 101.044C19.8467 101.044 22.0404 88.2938 44.0811 76.7532Z" fill="#78A3AD"/>
<path d="M44.0811 76.7532L19.8467 101.044C19.8467 101.044 32.4092 99.0188 44.0811 76.7532Z" fill="#016CA2"/>
<path d="M92.8125 18.4687L94.9594 18.2437C99.6 17.8968 103.134 22.3406 101.747 26.7843" stroke="#016CA2" stroke-width="0.28125" stroke-miterlimit="10" stroke-linecap="round"/>
</svg>

<svg xmlns="http://www.w3.org/2000/svg" fill="none" aria-hidden="true" data-slot="icon" viewBox="0 0 120 120"><path fill="#78A3AD" d="M31.322 32.897a3.277 3.277 0 0 1 0-4.64l5.962-5.963a3.277 3.277 0 0 1 4.64 0 3.275 3.275 0 0 1 0 4.64l-5.962 5.963a3.276 3.276 0 0 1-4.64 0m18.046 0a3.277 3.277 0 0 1 0-4.64l5.963-5.963a3.277 3.277 0 0 1 4.64 0 3.277 3.277 0 0 1 0 4.64l-5.962 5.963a3.277 3.277 0 0 1-4.64 0m38.316 36.328a3.276 3.276 0 0 1 0-4.64l5.963-5.963a3.277 3.277 0 0 1 4.64 0 3.277 3.277 0 0 1 0 4.64l-5.962 5.963a3.28 3.28 0 0 1-4.641 0m-.478 18.281a3.277 3.277 0 0 1 0-4.64l5.962-5.963a3.277 3.277 0 0 1 4.641 0 3.276 3.276 0 0 1 0 4.64l-5.962 5.963a3.277 3.277 0 0 1-4.641 0"/><path fill="#016CA2" d="M90.647 33.103s3.44 42.188 0 74.981c-.563 5.344-8.081 6.657-9.169 1.388-6.15-29.803-19.425-46.838-19.425-46.838zm-3.722-3.16s-42.187-3.44-74.981 0c-5.344.563-6.656 8.082-1.388 9.17 29.803 6.15 46.838 19.425 46.838 19.425zM40.313 79.689H7.519c-3.694 0-5.166 4.78-2.11 6.853L21.563 97.5zm0 0v32.793c0 3.694-4.782 5.166-6.854 2.11L22.5 98.438z"/><path fill="#40C0E7" d="M84.647 17.24 25.078 79.913a9.37 9.37 0 0 0-2.578 6.46v5.503a5.63 5.63 0 0 0 5.625 5.625h5.503a9.37 9.37 0 0 0 6.46-2.578l62.671-59.569a18.7 18.7 0 0 0 5.56-10.397l1.415-8.194c.666-3.834-2.672-7.162-6.496-6.497l-8.194 1.416a18.7 18.7 0 0 0-10.397 5.56"/><path fill="#78A3AD" d="m44.081 76.753-24.234 24.291s2.193-12.75 24.234-24.29"/><path fill="#016CA2" d="m44.081 76.753-24.234 24.291s12.562-2.025 24.234-24.29"/><path stroke="#016CA2" stroke-linecap="round" stroke-miterlimit="10" stroke-width=".281" d="m92.813 18.469 2.146-.225c4.641-.347 8.175 4.097 6.788 8.54"/></svg>
